packages/design-assets/icons/16px/Charts/Column Chart.svg

<svg width="16" height="16" xmlns="http://www.w3.org/2000/svg"><path d="M0 14h16v2H0v-2zM12 0h4v12h-4V0zM6 4h4v8H6V4zM0 8h4v4H0V8z" fill="#818F99" fill-rule="evenodd"/></svg>

<?xml version="1.0" encoding="UTF-8"?>
<svg width="16px" height="16px" viewBox="0 0 16 16" version="1.1" xmlns="http://www.w3.org/2000/svg" xmlns:xlink="http://www.w3.org/1999/xlink">
    <!-- Generator: Sketch 54.1 (76490) - https://sketchapp.com -->
    <title>Icons/16px/Charts/Column Chart</title>
    <desc>Created with Sketch.</desc>
    <g id="Icons/16px/Charts/Column-Chart" stroke="none" stroke-width="1" fill="none" fill-rule="evenodd">
        <path d="M0,14 L16,14 L16,16 L0,16 L0,14 Z M12,0 L16,0 L16,12 L12,12 L12,0 Z M6,4 L10,4 L10,12 L6,12 L6,4 Z M0,8 L4,8 L4,12 L0,12 L0,8 Z" id="i-16-chart-column" fill="#818F99"></path>
    </g>
</svg>
